svgs/thin/object-exclude.svg

<svg xmlns="http://www.w3.org/2000/svg" viewBox="0 0 512 512"><!--! Font Awesome Pro 6.6.0 by @fontawesome - https://fontawesome.com License - https://fontawesome.com/license (Commercial License) Copyright 2024 Fonticons, Inc. --><path d="M64 16l224 0c26.5 0 48 21.5 48 48l0 64 16 0 0-64c0-35.3-28.7-64-64-64L64 0C28.7 0 0 28.7 0 64L0 288c0 35.3 28.7 64 64 64l64 0 0-16-64 0c-26.5 0-48-21.5-48-48L16 64c0-26.5 21.5-48 48-48zm96 368l0 64c0 35.3 28.7 64 64 64l224 0c35.3 0 64-28.7 64-64l0-224c0-35.3-28.7-64-64-64l-64 0 0 16 64 0c26.5 0 48 21.5 48 48l0 224c0 26.5-21.5 48-48 48l-224 0c-26.5 0-48-21.5-48-48l0-64-16 0zm128-32c35.3 0 64-28.7 64-64l-16 0c0 26.5-21.5 48-48 48l-32 0 0 16 32 0zm64-176l0-16-16 0-48 0 0 16 48 0 0 80 16 0 0-80zM224 352l0-16-48 0 0-80-16 0 0 80 0 16 16 0 48 0zM160 224l16 0c0-26.5 21.5-48 48-48l32 0 0-16-32 0c-35.3 0-64 28.7-64 64z"/></svg>

<svg xmlns="http://www.w3.org/2000/svg" viewBox="0 0 512 512"><!--! Font Awesome Pro 6.4.0 by @fontawesome - https://fontawesome.com License - https://fontawesome.com/license (Commercial License) Copyright 2023 Fonticons, Inc. --><path d="M64 16H288c26.5 0 48 21.5 48 48v64h16V64c0-35.3-28.7-64-64-64H64C28.7 0 0 28.7 0 64V288c0 35.3 28.7 64 64 64h64V336H64c-26.5 0-48-21.5-48-48V64c0-26.5 21.5-48 48-48zm96 368v64c0 35.3 28.7 64 64 64H448c35.3 0 64-28.7 64-64V224c0-35.3-28.7-64-64-64H384v16h64c26.5 0 48 21.5 48 48V448c0 26.5-21.5 48-48 48H224c-26.5 0-48-21.5-48-48V384H160zm128-32c35.3 0 64-28.7 64-64H336c0 26.5-21.5 48-48 48H256v16h32zm64-176V160H336 288v16h48v80h16V176zM224 352V336H176V256H160v80 16h16 48zM160 224h16c0-26.5 21.5-48 48-48h32V160H224c-35.3 0-64 28.7-64 64z"/></svg>
